packages/icons/svg/Outline/person-done.svg

<svg width="24" height="24" viewBox="0 0 24 24" fill="none" xmlns="http://www.w3.org/2000/svg">
<g id="Icon/Outline/person-done">
<path id="Mask" fill-rule="evenodd" clip-rule="evenodd" d="M10 5C11.103 5 12 5.897 12 7C12 8.103 11.103 9 10 9C8.897 9 8 8.103 8 7C8 5.897 8.897 5 10 5ZM10 11C12.206 11 14 9.206 14 7C14 4.794 12.206 3 10 3C7.794 3 6 4.794 6 7C6 9.206 7.794 11 10 11ZM21.6562 4.2456C21.2392 3.8836 20.6082 3.9266 20.2452 4.3436L18.3792 6.4886L17.7452 5.7796C17.3782 5.3676 16.7462 5.3326 16.3332 5.7016C15.9222 6.0696 15.8862 6.7026 16.2552 7.1136L17.6442 8.6666C17.8342 8.8786 18.1052 8.9996 18.3892 8.9996H18.3962C18.6832 8.9976 18.9562 8.8726 19.1442 8.6566L21.7552 5.6566C22.1172 5.2396 22.0732 4.6076 21.6562 4.2456ZM3 20C3 16.14 6.141 13 10 13C13.859 13 17 16.14 17 20C17 20.552 16.553 21 16 21C15.447 21 15 20.552 15 20C15 17.243 12.757 15 10 15C7.243 15 5 17.243 5 20C5 20.552 4.553 21 4 21C3.447 21 3 20.552 3 20Z" fill="#000000"/>
</g>
</svg>

<svg fill="none" height="24" viewBox="0 0 24 24" width="24" xmlns="http://www.w3.org/2000/svg"><path clip-rule="evenodd" d="m10 5.00007c1.103 0 2 .897 2 2s-.897 2-2 2c-1.10298 0-1.99998-.897-1.99998-2s.897-2 1.99998-2zm0 5.99993c2.206 0 4-1.794 4-4s-1.794-4-4-4-4 1.794-4 4 1.794 4 4 4zm11.6562-6.75447c-.417-.362-1.048-.319-1.411.098l-1.866 2.145-.634-.709c-.367-.412-.999-.447-1.412-.078-.411.368-.447 1.001-.078 1.412l1.389 1.553c.19.212.461.333.745.333h.007c.287-.002.56-.127.748-.343l2.611-3c.362-.417.318-1.049-.099-1.411zm-18.6562 15.75437c0-3.86 3.141-7 7-7s7 3.14 7 7c0 .552-.447 1-1 1s-1-.448-1-1c0-2.757-2.243-5-5-5s-5 2.243-5 5c0 .552-.447 1-1 1s-1-.448-1-1z" fill="#6b7280" fill-rule="evenodd"/></svg>
